X:12
T:Labyrinth
C:Corwin Zekley
L:1/8
M:4/4
K:Dmin
"Dm" D2 E2 F2 D2 |"C" G4"Dm" A4- | A2 D2 D2 E2 | F2 D2 E2 F2 |$"G" G4 F2"F" A2- | A2 G2 =B2 c2 | %6
"G" d2 c2 =B4 |"Am" A4 A,2 C2 |$"Dm" D2 E2 F2 D2 |"C" G4"Dm" A4- | A2 D2 D2 E2 | F2 D2 G2 A2 |$ %12
"G" =B2 A2 G2"Dm" A2- | A2 G2 F2 G2 |"Am" E2 D2 C4 |"Dm" D2 F2 A2 d2 |$"Dm" e2 d2 c2 A2- | %17
 A2 d2 c2 =B2 |"G" G4 c2 A2 |"Am" G2 F2 D2 C2 |$"Dm" D2 E2 F2 D2 | G4 A4- |"G" A2 c2 =B2 G2 | %23
"Am" A2 D2 F2 A2 |$"Dm" e2 d2 c2 A2- | A2 d2 c2 =B2 |"G" G4 c2 A2 |"Am" G2 F2 D2 C2 |$ %28
"Bb" D2 E2 F2 D2 | G2 A2 F4 |"Am" E2 D2 C4 |"Dm" D4 |] %32

